src/images/monogram.svg

<svg width="134" height="72" viewBox="0 0 134 72" fill="none" xmlns="http://www.w3.org/2000/svg">
  <style>
    svg { cursor: pointer; }
    @media (prefers-color-scheme: dark) {
      path { fill: #EBF2F0; }
    }
  </style>
  <g id="monogram">
    <path id="monogram-a" opacity="0.2" d="M102.096 0C102.916 0 103.402 0.420139 103.707 0.952315L103.786 1.1L133.801 68.4C134.371 69.6435 133.669 70.887 132.302 70.9927L132.111 71H128.136C127.316 71 126.746 70.4958 126.504 70.0267L101.898 14.4028H101.097L76.5538 69.9C76.3716 70.3583 75.8553 70.9007 75.0816 70.9879L74.8642 71H70.8887C69.4627 71 68.6733 69.8106 69.1292 68.5695L69.1991 68.4L99.4129 1.1C99.6862 0.55 100.127 0.0840278 100.887 0.0101852L101.102 0H102.096Z" fill="black"/>
    <path id="monogram-m" d="M38.9006 72C39.501 72 40.4016 71.5 40.6017 70.9L59.0138 18.1H59.4141V18.1L68.3199 69.6C68.5201 70.3 69.3206 71 70.1211 71H74.1238C75.6248 71 76.2251 70 75.9249 68.6L63.0165 1.4C62.8163 0.6 62.0158 0 61.2153 0H59.6142C58.9138 0 58.1132 0.5 57.9131 1.1L38.4003 56.2H37.8999V56.2L18.0869 1.1C17.8868 0.5 17.0862 0 16.3858 0H14.7847C13.9842 0 13.1837 0.6 12.9835 1.4L0.0750494 68.6C-0.225148 70 0.375247 71 1.87623 71H5.87887C6.67939 71 7.57999 70.3 7.68005 69.6L16.3858 18.1H16.786V18.1L35.3983 70.9C35.5984 71.5 36.499 72 37.0994 72H38.9006Z" fill="black"/>
  </g>
</svg>

<svg xmlns="http://www.w3.org/2000/svg" width="134" height="72">
  <style>
    @media (prefers-color-scheme:dark) {
      path { fill: #ebf2f0; }
    }
  </style>
  <g id="monogram">
    <path id="monogram-a" fill="#000" d="M102.096 0c.82 0 1.306.42 1.611.952l.079.148 30.015 67.3c.57 1.243-.132 2.487-1.499 2.593l-.191.007h-3.975c-.82 0-1.39-.504-1.632-.973l-24.606-55.624h-.801L76.554 69.9c-.182.458-.699 1-1.472 1.088l-.218.012H70.89c-1.426 0-2.216-1.19-1.76-2.43l.07-.17L99.413 1.1c.273-.55.714-1.016 1.474-1.09l.215-.01h.994Z" opacity=".2"/>
    <path id="monogram-m" fill="#000" d="M38.9 72c.601 0 1.502-.5 1.702-1.1l18.412-52.8h.4l8.906 51.5c.2.7 1 1.4 1.801 1.4h4.003c1.5 0 2.101-1 1.8-2.4L63.017 1.4c-.2-.8-1-1.4-1.8-1.4h-1.602c-.7 0-1.5.5-1.7 1.1L38.4 56.2h-.5L18.087 1.1c-.2-.6-1-1.1-1.701-1.1h-1.601c-.8 0-1.601.6-1.802 1.4L.075 68.6c-.3 1.4.3 2.4 1.801 2.4H5.88c.8 0 1.701-.7 1.801-1.4l8.706-51.5h.4l18.612 52.8c.2.6 1.101 1.1 1.701 1.1h1.802Z"/>
  </g>
</svg>
